P3
8 6
255
 202 101   0   213 112  11   224 123  22   235 134  33   246 145  44     1 156  55    12 167  66    23 178  77  
 239 138  37   253 152  51    11 166  65    25 180  79    39 194  93    53 208 107    67 222 121    81 236 135  
  20 175  74    37 192  91    54 209 108    71 226 125    88 243 142   105   4 159   122  21 176   139  38 193  
  57 212 111    77 232 131    97 252 151   117  16 171   137  36 191   157  56 211   177  76 231   197  96 251  
  94 249 148   117  16 171   140  39 194   163  62 217   186  85 240   209 108   7   232 131  30   255 154  53  
 131  30 185   157  56 211   183  82 237   209 108   7   235 134  33     5 160  59    31 186  85    57 212 111  
